X:94
T:Kid On The Mountain
R: slip jig
M: 9/8
L: 1/8
K: Emin
EDE FEF G2 F | E3 BcA BGD | EDE FEF G2 A | BAG FAG FED :|
|: BGB AFA G2 D | GAB dge dBA | BGB AFA G2 A | BAG FAG FED :|
|: gfg eBe e2 f | g3 efg afd | gfg eBe g2 a | bag fag fed :|
|: eBB e2f g3 | eBB efg afd | eBB e2f g2a | bag fag fed :|
|: edB dBA G2D | GAB dge dBA | edB dBA G2A | BAG FAG FED :|

%%newpage
%%scale .75
%%staffsep 35

